rospo-icon-theme-classic-common/24x24/apps/distributor-logo-archlinux.svg

<svg height="24" width="24" xmlns="http://www.w3.org/2000/svg"><g fill-rule="evenodd"><path d="m11.998278 2.5005c-.890381 2.1824727-1.42739 3.610055-2.4186906 5.7274285.6077736.644142 1.3538246 1.3942325 2.5654206 2.2414225-1.302565-.535894-2.1910456-1.073887-2.8550296-1.63218-1.268657 2.646767-3.25636 6.41692-7.2899783 13.662829 3.1702933-1.829827 4.8777707-2.957963 7.1682352-3.388458-.09835-.422895-.1542715-.880339-.1504705-1.357633l.0035-.101549c.050301-2.030674 1.2379632-4.15236 3.1083492-4.15236s2.924642 2.505281 2.874331 4.535956c-.0094.382145-.05258.74969-.127891 1.090636 2.26546.443094 3.996562 1.56833 7.123946 3.373408-.616676-1.135036-1.167087-2.158223-1.692693-3.132711-.827968-.641592-1.691543-1.476582-3.453101-2.38057 1.210795.314546 2.077721.677442 2.753459 1.083086-5.344083-9.9478755-5.776671-11.2698585-7.609543-15.569805z" opacity=".2"/><path d="m11.998278 2.0005c-.890381 2.1824727-1.42739 3.610055-2.4186906 5.7274285.6077736.644142 1.3538246 1.3942325 2.5654206 2.241422-1.302565-.5358935-2.1910456-1.0738865-2.8550296-1.6321795-1.268657 2.646767-3.25636 6.41692-7.2899783 13.662829 3.1702933-1.829827 4.8777707-2.957963 7.1682352-3.388458-.09835-.422895-.1542715-.880339-.1504705-1.357633l.0035-.101549c.050301-2.030674 1.2379632-4.15236 3.1083492-4.15236s2.924642 2.505281 2.874331 4.535956c-.0094.382145-.05258.74969-.127891 1.090636 2.26546.443094 3.996562 1.56833 7.123946 3.373408-.616676-1.135036-1.167087-2.158223-1.692693-3.132711-.827968-.641592-1.691543-1.476582-3.453101-2.38057 1.210795.314546 2.077721.677442 2.753459 1.083086-5.344083-9.9478755-5.776671-11.2698585-7.609543-15.569805z" fill="#1793d1"/><path d="m11.998047 2c-.890381 2.1824727-1.426668 3.6111421-2.4179689 5.7285156.0437758.0463952.107011.1028995.1523438.1503906.8807861-1.9127023 1.4299891-3.3306241 2.2656251-5.3789062 1.779421 4.1745495 2.322942 5.6882685 7.238281 14.867188.127032.066624.255925.133989.371094.203124-5.344083-9.947875-5.776503-11.2703655-7.609375-15.570312zm-2.7089845 6.3378906c-1.268657 2.6467674-3.2554442 6.4162004-7.2890625 13.6621094.1486217-.085781.2579878-.149724.4003906-.232422 3.695748-6.655252 5.6743007-10.396176 6.8886719-12.9296874.663984.558293 1.5529035 1.0949654 2.8554685 1.6308594-.640143-.447611-1.139862-.8618116-1.568359-1.2539062-.509004-.2883196-.9337974-.5798803-1.2871095-.8769532zm7.5644535 8.6484374c1.761558.903988 2.625157 1.739268 3.453125 2.38086.403327.747779.847555 1.570632 1.298828 2.404296.140007.081246.248643.144312.394531.228516-.616676-1.135036-1.167753-2.158324-1.693359-3.132812-.469969-.364179-.97047-.79567-1.621094-1.261719-.512124-.222525-1.104997-.430268-1.832031-.619141zm-7.8203129.546875c-.001851.039777-.0107347.079416-.0117187.119141l-.0039063.101562c-.002414.303129.0270254.593603.0683594.876953.0279514-.005496.0539079-.014245.0820313-.019531-.0787045-.338421-.1192663-.702986-.1347657-1.078125zm5.9570309.191406c-.01724.313406-.050655.618825-.113281.902344.027418.005363.052813.013969.080078.019531.025012-.19802.041742-.402646.046875-.611328.002513-.101412-.01071-.207139-.013672-.310547z" fill="#fff" opacity=".2"/></g></svg>

<svg xmlns="http://www.w3.org/2000/svg" width="24" height="24" version="1.1">
 <path style="opacity:0.2;fill-rule:evenodd" d="M 11.998278,2.5005 C 11.107897,4.6829727 10.570888,6.110555 9.5795874,8.2279285 10.187361,8.8720705 10.933412,9.622161 12.145008,10.469351 10.842443,9.933457 9.9539624,9.395464 9.2899784,8.837171 8.0213214,11.483938 6.0336184,15.254091 2.0000001,22.5 5.1702934,20.670173 6.8777708,19.542037 9.1682353,19.111542 9.0698853,18.688647 9.0139638,18.231203 9.0177648,17.753909 l 0.0035,-0.101549 C 9.0715658,15.621686 10.259228,13.5 12.129614,13.5 c 1.870386,0 2.924642,2.505281 2.874331,4.535956 -0.0094,0.382145 -0.05258,0.74969 -0.127891,1.090636 2.26546,0.443094 3.996562,1.56833 7.123946,3.373408 -0.616676,-1.135036 -1.167087,-2.158223 -1.692693,-3.132711 -0.827968,-0.641592 -1.691543,-1.476582 -3.453101,-2.38057 1.210795,0.314546 2.077721,0.677442 2.753459,1.083086 C 14.263582,8.1219295 13.830994,6.7999465 11.998122,2.5 Z"/>
 <path d="M 11.998278,2.0005 C 11.107897,4.1829727 10.570888,5.610555 9.5795874,7.7279285 10.187361,8.3720705 10.933412,9.122161 12.145008,9.9693505 10.842443,9.433457 9.9539624,8.895464 9.2899784,8.337171 8.0213214,10.983938 6.0336184,14.754091 2.0000001,22 5.1702934,20.170173 6.8777708,19.042037 9.1682353,18.611542 9.0698853,18.188647 9.0139638,17.731203 9.0177648,17.253909 l 0.0035,-0.101549 C 9.0715658,15.121686 10.259228,13 12.129614,13 14,13 15.054256,15.505281 15.003945,17.535956 c -0.0094,0.382145 -0.05258,0.74969 -0.127891,1.090636 C 17.141514,19.069686 18.872616,20.194922 22,22 c -0.616676,-1.135036 -1.167087,-2.158223 -1.692693,-3.132711 -0.827968,-0.641592 -1.691543,-1.476582 -3.453101,-2.38057 1.210795,0.314546 2.077721,0.677442 2.753459,1.083086 C 14.263582,7.6219295 13.830994,6.2999465 11.998122,2 Z" style="fill:#1793d1;fill-rule:evenodd"/>
 <path style="fill:#ffffff;fill-rule:evenodd;opacity:0.2" d="M 11.998047 2 C 11.107666 4.1824727 10.571379 5.6111421 9.5800781 7.7285156 C 9.6238539 7.7749108 9.6870891 7.8314151 9.7324219 7.8789062 C 10.613208 5.9662039 11.162411 4.5482821 11.998047 2.5 C 13.777468 6.6745495 14.320989 8.1882685 19.236328 17.367188 C 19.36336 17.433812 19.492253 17.501177 19.607422 17.570312 C 14.263339 7.622437 13.830919 6.2999465 11.998047 2 z M 9.2890625 8.3378906 C 8.0204055 10.984658 6.0336183 14.754091 2 22 C 2.1486217 21.914219 2.2579878 21.850276 2.4003906 21.767578 C 6.0961386 15.112326 8.0746913 11.371402 9.2890625 8.8378906 C 9.9530465 9.3961836 10.841966 9.932856 12.144531 10.46875 C 11.504388 10.021139 11.004669 9.6069384 10.576172 9.2148438 C 10.067168 8.9265242 9.6423746 8.6349635 9.2890625 8.3378906 z M 16.853516 16.986328 C 18.615074 17.890316 19.478673 18.725596 20.306641 19.367188 C 20.709968 20.114967 21.154196 20.93782 21.605469 21.771484 C 21.745476 21.85273 21.854112 21.915796 22 22 C 21.383324 20.864964 20.832247 19.841676 20.306641 18.867188 C 19.836672 18.503009 19.336171 18.071518 18.685547 17.605469 C 18.173423 17.382944 17.58055 17.175201 16.853516 16.986328 z M 9.0332031 17.533203 C 9.0313521 17.57298 9.0224684 17.612619 9.0214844 17.652344 L 9.0175781 17.753906 C 9.0151641 18.057035 9.0446035 18.347509 9.0859375 18.630859 C 9.1138889 18.625363 9.1398454 18.616614 9.1679688 18.611328 C 9.0892643 18.272907 9.0487025 17.908342 9.0332031 17.533203 z M 14.990234 17.724609 C 14.972994 18.038015 14.939579 18.343434 14.876953 18.626953 C 14.904371 18.632316 14.929766 18.640922 14.957031 18.646484 C 14.982043 18.448464 14.998773 18.243838 15.003906 18.035156 C 15.006419 17.933744 14.993196 17.828017 14.990234 17.724609 z"/>
</svg>
